marvel/_inc/system.svg

<svg xmlns="http://www.w3.org/2000/svg"><path d="m521.368 39.418v-39.389h-109.604l-18.024 131.588-17.837-131.587h-39.525l4.428 35.112c-4.565-8.995-20.747-35.112-56.359-35.112-.235-.015-39.579 0-39.579 0l-.152 191.799-28.808-191.799-51.765-.03-29.803 198.73.016-198.701h-49.542l-17.86 111.627-17.396-111.626h-49.558v216.053h39.026v-104.137l17.752 104.134h20.747l17.503-104.134v104.134h75.234l4.566-33.245h30.29l4.55 33.245 73.862.046h.06v-.046h.046.046v-70.131l9.056-1.319 18.746 71.496h.046 38.114.044l-.015-.046h.068.046l-24.601-83.796c12.467-9.221 26.543-32.639 22.797-55.041v-.015c.045.303 23.22 138.99 23.22 138.99l45.438-.138 31.048-195.834v195.835h73.68v-38.858h-34.974v-49.55h34.974v-39.448h-34.974v-48.807zm-341.943 109.156 10.715-92.366 11.125 92.366zm113.439-42.649c-3.003 1.456-6.135 2.184-9.183 2.184v-69.495c.053 0 .114-.014.189-.014 3.057-.016 25.844.924 25.844 34.382 0 17.502-7.75 28.53-16.85 32.943m307.136 71.268v38.857h-71.876v-216.05h38.699v177.193z" fill="#fff"/></svg>

<?xml version="1.0" encoding="utf-8"?>
<svg version="1.1" xmlns="http://www.w3.org/2000/svg">
  <path fill="#FFFFFF" d="M 521.368 39.418 L 521.368 0.029 L 411.764 0.029 L 393.74 131.617 L 375.903 0.03 L 336.378 0.03 L 340.806 35.142 C 336.241 26.147 320.059 0.03 284.447 0.03 C 284.212 0.015 244.868 0.03 244.868 0.03 L 244.716 191.829 L 215.908 0.03 L 164.143 0 L 134.34 198.73 L 134.356 0.029 L 84.814 0.029 L 66.954 111.656 L 49.558 0.03 L 0 0.03 L 0 216.083 L 39.026 216.083 L 39.026 111.946 L 56.778 216.08 L 77.525 216.08 L 95.028 111.946 L 95.028 216.08 L 170.262 216.08 L 174.828 182.835 L 205.118 182.835 L 209.668 216.08 L 283.53 216.126 L 283.59 216.126 L 283.59 216.08 L 283.636 216.08 L 283.682 216.08 L 283.682 145.949 L 292.738 144.63 L 311.484 216.126 L 311.53 216.126 L 349.644 216.126 L 349.688 216.126 L 349.673 216.08 L 349.741 216.08 L 349.787 216.08 L 325.186 132.284 C 337.653 123.063 351.729 99.645 347.983 77.243 L 347.983 77.228 C 348.028 77.531 371.203 216.218 371.203 216.218 L 416.641 216.08 L 447.689 20.246 L 447.689 216.081 L 521.369 216.081 L 521.369 177.223 L 486.395 177.223 L 486.395 127.673 L 521.369 127.673 L 521.369 88.225 L 486.395 88.225 L 486.395 39.418 L 521.368 39.418 Z M 179.425 148.574 L 190.14 56.208 L 201.265 148.574 L 179.425 148.574 Z M 292.864 105.925 C 289.861 107.381 286.729 108.109 283.681 108.109 L 283.681 38.614 C 283.734 38.614 283.795 38.6 283.87 38.6 C 286.927 38.584 309.714 39.524 309.714 72.982 C 309.714 90.484 301.964 101.512 292.864 105.925 M 600 177.193 L 600 216.05 L 528.124 216.05 L 528.124 0 L 566.823 0 L 566.823 177.193 L 600 177.193 Z"/>
</svg>
